X:300
T:Disappointment.
C:John Malchair's Third Collection of Tunes
F:https://www.vwml.org/record/Malchair/3619/p30
F:www.vwml.org/topics/historic-dance-and-tune-books/Malchair
Z:Eric Conrad Jan 2020
N:This seems to be a CMD (common meter doubled) hymn tune....
N:NB1 assuming no repeats (as in MS) since this appears to be a hymn tune.
N:NB2 MS used flat (as in F# flatted), so F natural is intended.
M:C|
L:1/8
K:Gm
P:A
B2G2 B2d2 | cBAG ^F2d2 | cBAG ^F2B2 | AG^F=E D4 |
B2G2 d2g2 | fedc B2b2 | agf=e d2^f2 | g8 ||
P:B
B2d2 B2f2 | edcB A2e2 | dcBA G2d2 | cBAG ^F2d2 |
g2d2 g2b2 | ag^f=e d2g"_NB1"=f | edcB A3G | G8 |]

